Catalina-dark/actions/22/select-rectangular.svg

<svg viewBox="0 0 22 22" xmlns="http://www.w3.org/2000/svg">
<defs>
<style id="current-color-scheme" type="text/css">.ColorScheme-Text {
        color:#f2f2f2;
      }</style>
</defs>
<path class="ColorScheme-Text" d="m2 3v2h1v12h-1v2h2v-1h14v1h2v-2h-1v-12h1v-2h-2v1h-14v-1h-2zm2 2h14v12h-14v-12zm1 1v10h3v-1h-2v-8h11v-1h-12zm10 2-0.99609 0.99414-0.003906-0.0039062-5 4.998 0.0078125 0.007813-0.0039063 1.0039h-0.0039062v1h2l0.009766-0.009766c4e-3 -2e-5 0.005765 0.001949 0.009765 0.001954l-0.005859-0.00586 0.98633-0.98633 4-3.9961-0.70508-0.70898-4.9902 4.9863-0.59375-0.5918 4.9922-4.9883 0.5918 0.59375 0.70508 0.70312 1-1-2-1.998z" fill="currentColor"/>
</svg>

<svg xmlns="http://www.w3.org/2000/svg" viewBox="0 0 22 22">
  <defs id="defs3051">
    <style type="text/css" id="current-color-scheme">
      .ColorScheme-Text {
        color:#f2f2f2;
      }
      </style>
  </defs>
 <path 
     style="fill:currentColor;fill-opacity:1;stroke:none" 
     d="M 2 3 L 2 5 L 3 5 L 3 10 L 3 12 L 3 17 L 2 17 L 2 19 L 4 19 L 4 18 L 10 18 L 12 18 L 13 18 L 18 18 L 18 19 L 20 19 L 20 17 L 19 17 L 19 12 L 19 10 L 19 9 L 19 5 L 20 5 L 20 3 L 18 3 L 18 4 L 13 4 L 12 4 L 10 4 L 9 4 L 4 4 L 4 3 L 2 3 z M 4 5 L 18 5 L 18 17 L 12 17 L 10 17 L 4 17 L 4 5 z M 5 6 L 5 16 L 8 16 L 8 15 L 6 15 L 6 7 L 8 7 L 16 7 L 17 7 L 17 6 L 5 6 z M 15 8 L 14.003906 8.9941406 L 14 8.9902344 L 9 13.988281 L 9.0078125 13.996094 L 9.0039062 15 L 9 15 L 9 15.990234 L 9 16 L 11 16 L 11.005859 15.994141 L 11.009766 15.990234 C 11.013766 15.990214 11.015531 15.992183 11.019531 15.992188 L 11.013672 15.986328 L 12 15 L 16 11.003906 L 15.294922 10.294922 L 10.304688 15.28125 L 9.7109375 14.689453 L 14.703125 9.7011719 L 15.294922 10.294922 L 16 10.998047 L 17 9.9980469 L 15 8 z "
	 class="ColorScheme-Text"
     />
</svg>
